Numix-GalliumOS/32/mimetypes/application-presentation-template.svg

<?xml version="1.0" encoding="UTF-8" standalone="no"?>
<svg
   xmlns:dc="http://purl.org/dc/elements/1.1/"
   xmlns:cc="http://creativecommons.org/ns#"
   xmlns:rdf="http://www.w3.org/1999/02/22-rdf-syntax-ns#"
   xmlns:svg="http://www.w3.org/2000/svg"
   xmlns="http://www.w3.org/2000/svg"
   xmlns:sodipodi="http://sodipodi.sourceforge.net/DTD/sodipodi-0.dtd"
   xmlns:inkscape="http://www.inkscape.org/namespaces/inkscape"
   width="32"
   height="32"
   viewBox="0 0 32 32"
   id="svg3003"
   version="1.1"
   inkscape:version="0.48.5 r10040"
   sodipodi:docname="application-presentation-template.svg">
  <metadata
     id="metadata3023">
    <rdf:RDF>
      <cc:Work
         rdf:about="">
        <dc:format>image/svg+xml</dc:format>
        <dc:type
           rdf:resource="http://purl.org/dc/dcmitype/StillImage" />
      </cc:Work>
    </rdf:RDF>
  </metadata>
  <defs
     id="defs3021" />
  <sodipodi:namedview
     pagecolor="#ffffff"
     bordercolor="#666666"
     borderopacity="1"
     objecttolerance="10"
     gridtolerance="10"
     guidetolerance="10"
     inkscape:pageopacity="0"
     inkscape:pageshadow="2"
     inkscape:window-width="1280"
     inkscape:window-height="970"
     id="namedview3019"
     showgrid="true"
     inkscape:zoom="20.85965"
     inkscape:cx="17.908287"
     inkscape:cy="18.733461"
     inkscape:window-x="0"
     inkscape:window-y="0"
     inkscape:window-maximized="1"
     inkscape:current-layer="svg3003">
    <inkscape:grid
       type="xygrid"
       id="grid3032" />
  </sodipodi:namedview>
  <path
     inkscape:connector-curvature="0"
     style="fill:#d14626;fill-opacity:1"
     d="M 5.34375,2e-7 C 4.6562764,1.52e-5 4,0.6890072 4,1.4062502 L 4,30.59375 C 4,31.270239 4.6953364,32 5.34375,32 l 21.3125,0 C 27.304664,32 28,31.270239 28,30.59375 l 0,-21.5937498 0,-7.625 C 28,0.7020492 27.297951,2e-7 26.625,2e-7 l -7.625,0 -13.65625,0 z"
     id="path4-1" />
  <path
     style="fill:#ffffff"
     inkscape:connector-curvature="0"
     id="path3009"
     d="m 8,11 5,0 0,3 -5,0 z" />
  <path
     style="fill:#ffffff"
     inkscape:connector-curvature="0"
     id="path3011"
     d="m 8,16 5,0 0,3 -5,0 z" />
  <path
     style="fill:#ffffff"
     inkscape:connector-curvature="0"
     id="path3013"
     d="m 8,21 16,0 0,1 -16,0 z" />
  <path
     style="fill:#ffffff"
     inkscape:connector-curvature="0"
     id="path3015"
     d="M 20,9.9925388 20,14 24,14 C 24,11.785644 22.208522,9.9925388 20,9.9925388 z" />
  <path
     style="fill:#ffffff"
     inkscape:connector-curvature="0"
     id="path3017"
     d="M 19.001814,11 C 16.792291,11 15,12.789768 15,15 c 0,2.210233 1.792291,4 4.001814,4 C 21.211338,19 23,17.210233 23,15 l -3.998186,0 z" />
</svg>

<svg xmlns="http://www.w3.org/2000/svg" viewBox="0 0 32 32">
 <path d="m 5.344 0 c -0.687 0 -1.344 0.689 -1.344 1.406 l 0 29.19 c 0 0.676 0.695 1.406 1.344 1.406 l 21.313 0 c 0.648 0 1.344 -0.73 1.344 -1.406 l 0 -21.594 0 -7.625 c 0 -0.673 -0.702 -1.375 -1.375 -1.375 l -7.625 0 -13.656 0 z" style="fill:#d14626;fill-opacity:1"/>
 <path d="m 8 11 5 0 0 3 -5 0 z" style="fill:#fff"/>
 <path d="m 8 16 5 0 0 3 -5 0 z" style="fill:#fff"/>
 <path d="m 8 21 16 0 0 1 -16 0 z" style="fill:#fff"/>
 <path d="m 20 9.993 0 4.01 4 0 c 0 -2.214 -1.791 -4.01 -4 -4.01 z" style="fill:#fff"/>
 <path d="m 19 11 c -2.21 0 -4 1.79 -4 4 c 0 2.21 1.792 4 4 4 c 2.21 0 3.998 -1.79 3.998 -4 l -3.998 0 z" style="fill:#fff"/>
</svg>
